X: 60
T:Gramachree
M:6/8
L:1/8
Q:160
S:Playford
O:Manuscript
A:English
K:F
F| d2 e f2 d| e^cA A2 A| d2 e f3 g|afd d2 f/2g/2|agf gfe|fed cBA| G2 A B2 G| AFD D2 :|
|: F| FGF F2f| f2 d cAF|G2 A B2 G|AFD D2 F |FGF F2 f|f2 d cAF |G2 A B2 G|AF D D2:|

